; generated by Slic3r 1.2.9 on 2015-10-16 at 01:01:17

; external perimeters extrusion width = 0.50mm
; perimeters extrusion width = 0.72mm
; infill extrusion width = 0.72mm
; solid infill extrusion width = 0.72mm
; top infill extrusion width = 0.72mm

M107
M104 S200 ; set temperature
G28 ; home all axes
G1 Z5 F5000 ; lift nozzle

M109 S200 ; wait for temperature to be reached
G21 ; set units to millimeters
G90 ; use absolute coordinates
M82 ; use absolute distances for extrusion
G92 E0
G1 Z0.500 F7800.000
G1 E-2.00000 F2400.00000
G92 E0
G1 X83.634 Y83.634 F7800.000
G1 E2.00000 F2400.00000
G1 X84.236 Y83.031 E2.05378 F1800.000
G1 X84.772 Y82.549 E2.09934
G1 X86.096 Y81.477 E2.20691
G1 X86.680 Y81.053 E2.25247
G1 X88.108 Y80.125 E2.36004
G1 X88.733 Y79.764 E2.40560
G1 X90.251 Y78.991 E2.51317
G1 X90.910 Y78.697 E2.55872
G1 X92.501 Y78.087 E2.66630
G1 X93.187 Y77.864 E2.71185
G1 X94.832 Y77.423 E2.81942
G1 X95.538 Y77.273 E2.86498
G1 X97.221 Y77.006 E2.97255
G1 X97.938 Y76.931 E3.01811
G1 X99.639 Y76.842 E3.12568
G1 X100.361 Y76.842 E3.17124
G1 X102.062 Y76.931 E3.27881 F1800.000
G1 X102.779 Y77.006 E3.32437
G1 X104.462 Y77.273 E3.43194
G1 X105.168 Y77.423 E3.47749
G1 X106.813 Y77.864 E3.58507
G1 X107.499 Y78.087 E3.63062
G1 X109.090 Y78.697 E3.73819
G1 X109.749 Y78.991 E3.78375
G1 X111.267 Y79.764 E3.89133
G1 X111.892 Y80.125 E3.93688
G1 X113.320 Y81.053 E4.04445
G1 X113.904 Y81.477 E4.09001
G1 X115.228 Y82.549 E4.19758
G1 X115.764 Y83.031 E4.24314
G1 X116.969 Y84.236 E4.35071
G1 X117.451 Y84.772 E4.39627
G1 X118.523 Y86.096 E4.50384
G1 X118.947 Y86.680 E4.54939
G1 X119.875 Y88.108 E4.65697
G1 X120.236 Y88.733 E4.70252
G1 X121.009 Y90.251 E4.81009
G1 X121.303 Y90.910 E4.85565
G1 X121.913 Y92.501 E4.96322
G1 X122.136 Y93.187 E5.00878
G1 X122.577 Y94.832 E5.11635
G1 X122.727 Y95.538 E5.16191
G1 X122.994 Y97.221 E5.26948
G1 X123.069 Y97.938 E5.31504
G1 X123.158 Y99.639 E5.42261
G1 X123.158 Y100.361 E5.46816
G1 X123.069 Y102.062 E5.57574
G1 X122.994 Y102.779 E5.62129
G1 X122.727 Y104.462 E5.72886
G1 X122.577 Y105.168 E5.77442
G1 X122.136 Y106.813 E5.88200
G1 X121.913 Y107.499 E5.92755
G1 X121.303 Y109.090 E6.03512
G1 X121.009 Y109.749 E6.08068
G1 X120.236 Y111.267 E6.18825
G1 X119.875 Y111.892 E6.23381
G1 X118.947 Y113.320 E6.34138
G1 X118.523 Y113.904 E6.38693
G1 X117.579 Y115.070 E6.48170
G1 X116.969 Y115.764 E6.54005
G1 X115.764 Y116.969 E6.64762
G1 X115.228 Y117.451 E6.69318
G1 X113.904 Y118.523 E6.80075
G1 X113.320 Y118.947 E6.84631
G1 X111.892 Y119.875 E6.95388
G1 X111.267 Y120.236 E6.99943
G1 X109.930 Y120.917 E7.09420
G1 X109.090 Y121.303 E7.15255
G1 X107.499 Y121.913 E7.26012
G1 X106.813 Y122.136 E7.30568
G1 X105.168 Y122.577 E7.41325
G1 X104.462 Y122.727 E7.45881
G1 X102.779 Y122.994 E7.56638
G1 X102.062 Y123.069 E7.61194
G1 X100.361 Y123.158 E7.71951
G1 X99.639 Y123.158 E7.76506
G1 X97.938 Y123.069 E7.87263
G1 X97.221 Y122.994 E7.91819
G1 X95.538 Y122.727 E8.02576
G1 X94.832 Y122.577 E8.07132
G1 X93.187 Y122.136 E8.17889
G1 X92.501 Y121.913 E8.22445
G1 X90.910 Y121.303 E8.33202
G1 X90.251 Y121.009 E8.37758
G1 X88.733 Y120.236 E8.48515
G1 X88.108 Y119.875 E8.53070
G1 X86.680 Y118.947 E8.63828
G1 X86.096 Y118.523 E8.68383
G1 X84.772 Y117.451 E8.79141
G1 X84.236 Y116.969 E8.83696
G1 X83.031 Y115.764 E8.94453
G1 X82.549 Y115.228 E8.99009
G1 X81.477 Y113.904 E9.09766
G1 X81.053 Y113.320 E9.14322
G1 X80.125 Y111.892 E9.25079
G1 X79.764 Y111.267 E9.29635
G1 X78.991 Y109.749 E9.40392
G1 X78.697 Y109.090 E9.44948
G1 X78.087 Y107.499 E9.55705
G1 X77.864 Y106.813 E9.60260
G1 X77.475 Y105.364 E9.69737
G1 X77.273 Y104.462 E9.75572
G1 X77.006 Y102.779 E9.86329
G1 X76.931 Y102.062 E9.90885
G1 X76.842 Y100.361 E10.01642
G1 X76.842 Y99.639 E10.06198
G1 X76.931 Y97.938 E10.16955
G1 X77.006 Y97.221 E10.21510
G1 X77.273 Y95.538 E10.32268
G1 X77.423 Y94.832 E10.36823
G1 X77.811 Y93.383 E10.46300
G1 X78.087 Y92.501 E10.52135
G1 X78.697 Y90.910 E10.62892
G1 X78.991 Y90.251 E10.67448
G1 X79.764 Y88.733 E10.78205
G1 X80.125 Y88.108 E10.82760
G1 X81.053 Y86.680 E10.93517
G1 X81.477 Y86.096 E10.98073
G1 X82.549 Y84.772 E11.08831
G1 X83.031 Y84.236 E11.13386
G1 X83.581 Y83.687 E11.18291
G1 E9.18291 F2400.00000
G92 E0
G1 X105.825 Y105.583 F7800.000
G1 E2.00000 F2400.00000
G1 X104.798 Y106.487 E2.08642 F1800.000
G1 X103.633 Y107.205 E2.17283
G1 X102.363 Y107.715 E2.25925
G1 X101.025 Y108.003 E2.34567
G1 X99.658 Y108.061 E2.43209
G1 X98.300 Y107.888 E2.51850
G1 X96.980 Y107.483 E2.60570
G1 X95.706 Y106.824 E2.69627
G1 X94.669 Y106.057 E2.77770
G1 X93.722 Y105.069 E2.86412
G1 X92.956 Y103.935 E2.95053
G1 X92.392 Y102.688 E3.03695
G1 X92.047 Y101.364 E3.12337
G1 X91.931 Y100.000 E3.20979
G1 X92.047 Y98.636 E3.29620
G1 X92.392 Y97.312 E3.38262
G1 X92.956 Y96.065 E3.46904
G1 X93.722 Y94.931 E3.55546
G1 X94.669 Y93.943 E3.64187
G1 X95.770 Y93.129 E3.72829
G1 X96.992 Y92.513 E3.81471
G1 X98.300 Y92.112 E3.90112
G1 X98.615 Y92.072 E3.92119
G1 X99.658 Y91.939 E3.98754 F1800.000
G1 X101.025 Y91.997 E4.07396
G1 X102.363 Y92.285 E4.16038
G1 X103.633 Y92.795 E4.24679
G1 X104.798 Y93.513 E4.33321
G1 X105.825 Y94.417 E4.41963
G1 X106.685 Y95.482 E4.50604
G1 X107.352 Y96.677 E4.59246
G1 X107.808 Y97.967 E4.67888
G1 X108.040 Y99.316 E4.76530
G1 X108.040 Y100.684 E4.85171
G1 X107.806 Y102.045 E4.93891
G1 X107.314 Y103.392 E5.02948
G1 X106.685 Y104.518 E5.11091
G1 X105.872 Y105.525 E5.19259
G1 X105.178 Y104.963 F7800.000
G1 X104.265 Y105.767 E5.26941 F1800.000
G1 X103.229 Y106.405 E5.34623
G1 X102.100 Y106.858 E5.42306
G1 X100.911 Y107.115 E5.49988
G1 X99.696 Y107.166 E5.57670
G1 X98.489 Y107.012 E5.65352
G1 X97.318 Y106.653 E5.73082
G1 X96.180 Y106.064 E5.81179
G1 X95.261 Y105.384 E5.88393
G1 X94.419 Y104.506 E5.96075
G1 X93.738 Y103.498 E6.03757
G1 X93.237 Y102.390 E6.11440
G1 X92.930 Y101.212 E6.19122
G1 X92.827 Y100.000 E6.26804
G1 X92.930 Y98.788 E6.34486
G1 X93.237 Y97.610 E6.42168
G1 X93.738 Y96.502 E6.49850
G1 X94.419 Y95.494 E6.57533
G1 X95.261 Y94.616 E6.65215
G1 X96.239 Y93.892 E6.72897
G1 X97.326 Y93.344 E6.80579
G1 X98.489 Y92.988 E6.88261
G1 X98.729 Y92.958 E6.89788
G1 X99.696 Y92.834 E6.95943 F1800.000
G1 X100.911 Y92.885 E7.03626
G1 X102.100 Y93.142 E7.11308
G1 X103.229 Y93.595 E7.18990
G1 X104.265 Y94.233 E7.26672
G1 X105.178 Y95.037 E7.34354
G1 X105.943 Y95.983 E7.42036
G1 X106.536 Y97.046 E7.49719
G1 X106.941 Y98.193 E7.57401
G1 X107.147 Y99.392 E7.65083
G1 X107.147 Y100.608 E7.72765
G1 X106.940 Y101.815 E7.80495
G1 X106.500 Y103.019 E7.88592
G1 X105.943 Y104.017 E7.95806
G1 X105.226 Y104.905 E8.03015
G1 X104.532 Y104.343 F7800.000
G1 X103.732 Y105.047 E8.09737 F1800.000
G1 X102.826 Y105.605 E8.16460
G1 X101.838 Y106.002 E8.23182
G1 X100.797 Y106.226 E8.29905
G1 X99.734 Y106.271 E8.36628
G1 X98.678 Y106.136 E8.43350
G1 X97.657 Y105.823 E8.50090
G1 X96.653 Y105.304 E8.57228
G1 X95.853 Y104.712 E8.63512
G1 X95.116 Y103.943 E8.70235
G1 X94.520 Y103.061 E8.76958
G1 X94.082 Y102.091 E8.83680
G1 X93.813 Y101.061 E8.90403
G1 X93.723 Y100.000 E8.97125
G1 X93.813 Y98.939 E9.03848
G1 X94.082 Y97.909 E9.10571
G1 X94.520 Y96.939 E9.17293
G1 X95.116 Y96.057 E9.24016
G1 X95.853 Y95.288 E9.30738
G1 X96.709 Y94.655 E9.37461
G1 X97.660 Y94.176 E9.44184
G1 X98.678 Y93.864 E9.50906
G1 X98.842 Y93.843 E9.51954
G1 X99.734 Y93.729 E9.57629 F1800.000
G1 X100.797 Y93.774 E9.64351
G1 X101.838 Y93.998 E9.71074
G1 X102.826 Y94.395 E9.77797
G1 X103.732 Y94.953 E9.84519
G1 X104.532 Y95.657 E9.91242
G1 X105.200 Y96.485 E9.97964
G1 X105.720 Y97.415 E10.04687
G1 X106.074 Y98.418 E10.11410
G1 X106.254 Y99.468 E10.18132
G1 X106.254 Y100.532 E10.24855
G1 X106.074 Y101.584 E10.31595
G1 X105.686 Y102.646 E10.38732
G1 X105.200 Y103.515 E10.45017
G1 X104.579 Y104.285 E10.51266
G1 X104.658 Y104.827 F7800.000
G1 X109.971 Y109.782 F7800.000
G1 X109.359 Y110.394 E10.56730 F1800.000
G1 X108.221 Y111.315 E10.65974
G1 X106.993 Y112.113 E10.75218
G1 X105.689 Y112.777 E10.84463
G1 X104.322 Y113.302 E10.93707
G1 X102.908 Y113.681 E11.02952
G1 X101.462 Y113.910 E11.12196
G1 X100.000 Y113.986 E11.21441
G1 X98.538 Y113.910 E11.30685
G1 X97.092 Y113.681 E11.39930
G1 X95.678 Y113.302 E11.49174
G1 X94.311 Y112.777 E11.58418
G1 X93.007 Y112.113 E11.67663
G1 X91.779 Y111.315 E11.76907
G1 X90.641 Y110.394 E11.86152
G1 X89.606 Y109.359 E11.95396
G1 X88.685 Y108.221 E12.04641
G1 X87.887 Y106.993 E12.13885
G1 X87.223 Y105.689 E12.23130
G1 X86.698 Y104.322 E12.32374
G1 X86.319 Y102.908 E12.41618
G1 X86.090 Y101.462 E12.50863
G1 X86.014 Y100.000 E12.60107
G1 X86.090 Y98.538 E12.69352
G1 X86.319 Y97.092 E12.78596
G1 X86.698 Y95.678 E12.87841
G1 X87.223 Y94.311 E12.97085
G1 X87.887 Y93.007 E13.06330
G1 X88.685 Y91.779 E13.15574
G1 X89.606 Y90.641 E13.24818
G1 X90.641 Y89.606 E13.34063
G1 X91.779 Y88.685 E13.43307
G1 X93.007 Y87.887 E13.52552
G1 X94.311 Y87.223 E13.61796
G1 X95.678 Y86.698 E13.71041
G1 X97.092 Y86.319 E13.80285
G1 X98.538 Y86.090 E13.89530
G1 X100.000 Y86.014 E13.98774
G1 X101.379 Y86.086 E14.07494
G1 X102.908 Y86.319 E14.17260 F1800.000
G1 X104.322 Y86.698 E14.26505
G1 X105.689 Y87.223 E14.35749
G1 X106.993 Y87.887 E14.44994
G1 X108.221 Y88.685 E14.54238
G1 X109.359 Y89.606 E14.63482
G1 X110.394 Y90.641 E14.72727
G1 X111.315 Y91.779 E14.81971
G1 X112.113 Y93.007 E14.91216
G1 X112.777 Y94.311 E15.00460
G1 X113.302 Y95.678 E15.09705
G1 X113.681 Y97.092 E15.18949
G1 X113.910 Y98.538 E15.28194
G1 X113.986 Y100.000 E15.37438
G1 X113.910 Y101.462 E15.46682
G1 X113.681 Y102.908 E15.55927
G1 X113.302 Y104.322 E15.65171
G1 X112.777 Y105.689 E15.74416
G1 X112.113 Y106.993 E15.83660
G1 X111.315 Y108.221 E15.92905
G1 X110.394 Y109.359 E16.02149
G1 X110.024 Y109.729 E16.05456
G1 X110.602 Y110.413 F7800.000
G1 X109.957 Y111.058 E16.11215 F1800.000
G1 X108.746 Y112.038 E16.21051
G1 X107.440 Y112.887 E16.30886
G1 X106.052 Y113.594 E16.40721
G1 X104.598 Y114.152 E16.50557
G1 X103.094 Y114.555 E16.60392
G1 X101.555 Y114.799 E16.70227
G1 X100.000 Y114.880 E16.80062
G1 X98.445 Y114.799 E16.89898
G1 X96.906 Y114.555 E16.99733
G1 X95.402 Y114.152 E17.09568
G1 X93.948 Y113.594 E17.19404
G1 X92.560 Y112.887 E17.29239
G1 X91.254 Y112.038 E17.39074
G1 X90.043 Y111.058 E17.48909
G1 X88.942 Y109.957 E17.58745
G1 X87.962 Y108.746 E17.68580
G1 X87.113 Y107.440 E17.78415
G1 X86.406 Y106.052 E17.88251
G1 X85.848 Y104.598 E17.98086
G1 X85.445 Y103.094 E18.07921
G1 X85.201 Y101.555 E18.17757
G1 X85.120 Y100.000 E18.27592
G1 X85.201 Y98.445 E18.37427
G1 X85.445 Y96.906 E18.47262
G1 X85.848 Y95.402 E18.57098
G1 X86.406 Y93.948 E18.66933
G1 X87.113 Y92.560 E18.76768
G1 X87.962 Y91.254 E18.86604
G1 X88.942 Y90.043 E18.96439
G1 X90.043 Y88.942 E19.06274
G1 X91.254 Y87.962 E19.16109
G1 X92.560 Y87.113 E19.25945
G1 X93.948 Y86.406 E19.35780
G1 X95.402 Y85.848 E19.45615
G1 X96.906 Y85.445 E19.55451
G1 X98.445 Y85.201 E19.65286
G1 X100.000 Y85.120 E19.75121
G1 X101.426 Y85.194 E19.84137
G1 X101.555 Y85.201 E19.84956 F1800.000
G1 X103.094 Y85.445 E19.94792
G1 X104.598 Y85.848 E20.04627
G1 X106.052 Y86.406 E20.14462
G1 X107.440 Y87.113 E20.24298
G1 X108.746 Y87.962 E20.34133
G1 X109.957 Y88.942 E20.43968
G1 X111.058 Y90.043 E20.53803
G1 X112.038 Y91.254 E20.63639
G1 X112.887 Y92.560 E20.73474
G1 X113.594 Y93.948 E20.83309
G1 X114.152 Y95.402 E20.93145
G1 X114.555 Y96.906 E21.02980
G1 X114.799 Y98.445 E21.12815
G1 X114.880 Y100.000 E21.22650
G1 X114.799 Y101.555 E21.32486
G1 X114.555 Y103.094 E21.42321
G1 X114.152 Y104.598 E21.52156
G1 X113.594 Y106.052 E21.61992
G1 X112.887 Y107.440 E21.71827
G1 X112.038 Y108.746 E21.81662
G1 X111.058 Y109.957 E21.91498
G1 X110.655 Y110.360 E21.95100
G1 X111.233 Y111.045 F7800.000
G1 X110.555 Y111.723 E22.01155 F1800.000
G1 X109.272 Y112.762 E22.11581
G1 X107.887 Y113.661 E22.22007
G1 X106.416 Y114.411 E22.32433
G1 X104.875 Y115.002 E22.42859
G1 X103.280 Y115.430 E22.53285
G1 X101.649 Y115.688 E22.63711
G1 X100.000 Y115.774 E22.74138
G1 X98.351 Y115.688 E22.84564
G1 X96.720 Y115.430 E22.94990
G1 X95.125 Y115.002 E23.05416
G1 X93.584 Y114.411 E23.15842
G1 X92.113 Y113.661 E23.26268
G1 X90.728 Y112.762 E23.36694
G1 X89.445 Y111.723 E23.47121
G1 X88.277 Y110.555 E23.57547
G1 X87.238 Y109.272 E23.67973
G1 X86.339 Y107.887 E23.78399
G1 X85.589 Y106.416 E23.88825
G1 X84.998 Y104.875 E23.99251
G1 X84.570 Y103.280 E24.09677
G1 X84.312 Y101.649 E24.20103
G1 X84.226 Y100.000 E24.30530
G1 X84.312 Y98.351 E24.40956
G1 X84.570 Y96.720 E24.51382
G1 X84.998 Y95.125 E24.61808
G1 X85.589 Y93.584 E24.72234
G1 X86.339 Y92.113 E24.82660
G1 X87.238 Y90.728 E24.93086
G1 X88.277 Y89.445 E25.03513
G1 X89.445 Y88.277 E25.13939
G1 X90.728 Y87.238 E25.24365
G1 X92.113 Y86.339 E25.34791
G1 X93.584 Y85.589 E25.45217
G1 X95.125 Y84.998 E25.55643
G1 X96.720 Y84.570 E25.66069
G1 X98.351 Y84.312 E25.76496
G1 X100.000 Y84.226 E25.86922
G1 X101.473 Y84.303 E25.96233
G1 X101.649 Y84.312 E25.97348 F1800.000
G1 X103.280 Y84.570 E26.07774
G1 X104.875 Y84.998 E26.18200
G1 X106.416 Y85.589 E26.28626
G1 X107.887 Y86.339 E26.39052
G1 X109.272 Y87.238 E26.49478
G1 X110.555 Y88.277 E26.59905
G1 X111.723 Y89.445 E26.70331
G1 X112.762 Y90.728 E26.80757
G1 X113.661 Y92.113 E26.91183
G1 X114.411 Y93.584 E27.01609
G1 X115.002 Y95.125 E27.12035
G1 X115.430 Y96.720 E27.22461
G1 X115.688 Y98.351 E27.32888
G1 X115.774 Y100.000 E27.43314
G1 X115.688 Y101.649 E27.53740
G1 X115.430 Y103.280 E27.64166
G1 X115.002 Y104.875 E27.74592
G1 X114.411 Y106.416 E27.85018
G1 X113.661 Y107.887 E27.95444
G1 X112.762 Y109.272 E28.05870
G1 X111.723 Y110.555 E28.16297
G1 X111.286 Y110.992 E28.20195
G1 X110.750 Y110.915 F7800.000
G1 X113.003 Y96.900 F7800.000
G1 X103.100 Y86.997 E29.10438 F1800.000
G1 X101.507 Y86.692 E29.20887
G1 X113.315 Y98.500 E30.28489
G1 X113.421 Y99.894 E30.37494
G1 X100.106 Y86.579 E31.58823
G1 X98.853 Y86.614 E31.66903
G1 X105.210 Y92.972 E32.24839
G1 X107.086 Y94.848 F7800.000
G1 X113.386 Y101.147 E32.82247 F1800.000
G1 X113.249 Y102.299 E32.89717
G1 X108.225 Y97.275 E33.35497
G1 X108.561 Y98.899 E33.46185
G1 X113.032 Y103.370 E33.86931
G1 X112.751 Y104.378 E33.93669
G1 X108.589 Y100.215 E34.31598
G1 X108.451 Y101.365 E34.39061
G1 X112.394 Y105.309 E34.74995
G1 X111.981 Y106.184 E34.81233
G1 X108.203 Y102.405 E35.15668
G1 X107.858 Y103.349 E35.22140
G1 X111.528 Y107.019 E35.55582
G1 X111.020 Y107.800 E35.61582
G1 X107.416 Y104.196 E35.94425
G1 X106.916 Y104.984 E36.00439
G1 X110.460 Y108.527 E36.32727
G1 X109.851 Y109.207 E36.38606
G1 X106.341 Y105.697 E36.70596
G1 X105.688 Y106.332 E36.76466
G1 X109.207 Y109.851 E37.08535
G1 X108.527 Y110.460 E37.14414
G1 X104.995 Y106.927 E37.46600
G1 X104.198 Y107.418 E37.52634
G1 X107.800 Y111.020 E37.85457
G1 X107.019 Y111.528 E37.91458
G1 X103.343 Y107.852 E38.24953
G1 X102.424 Y108.221 E38.31335
G1 X106.184 Y111.981 E38.65602
G1 X105.309 Y112.394 E38.71839
G1 X101.369 Y108.455 E39.07737
G1 X100.206 Y108.580 E39.15273
G1 X104.378 Y112.751 E39.53283
G1 X103.370 Y113.032 E39.60021
G1 X98.880 Y108.541 E40.00944
G1 X97.260 Y108.210 E40.11594
G1 X102.299 Y113.249 E40.57506
G1 X101.147 Y113.386 E40.64976
G1 X94.742 Y106.980 E41.23349
G1 X93.020 Y105.259 F7800.000
G1 X86.614 Y98.853 E41.81724 F1800.000
G1 X86.751 Y97.701 E41.89194
G1 X91.780 Y102.730 E42.35017
G1 X91.459 Y101.120 E42.45593
G1 X86.968 Y96.630 E42.86515
G1 X87.254 Y95.628 E42.93228
G1 X91.413 Y99.787 E43.31127
G1 X91.529 Y98.614 E43.38723
G1 X87.607 Y94.693 E43.74454
G1 X88.019 Y93.816 E43.80696
G1 X91.795 Y97.592 E44.15106
G1 X92.151 Y96.660 E44.21534
G1 X88.472 Y92.981 E44.55057
G1 X88.980 Y92.200 E44.61058
G1 X92.568 Y95.789 E44.93759
G1 X93.088 Y95.020 E44.99737
G1 X89.540 Y91.473 E45.32062
G1 X90.149 Y90.793 E45.37941
G1 X93.665 Y94.310 E45.69987
G1 X94.296 Y93.652 E45.75858
G1 X90.793 Y90.149 E46.07780
G1 X91.473 Y89.540 E46.13659
G1 X95.024 Y93.091 E46.46017
G1 X95.795 Y92.574 E46.51999
G1 X92.200 Y88.980 E46.84754
G1 X92.981 Y88.472 E46.90754
G1 X96.651 Y92.142 E47.24196
G1 X97.599 Y91.802 E47.30685
G1 X93.816 Y88.019 E47.65161
G1 X94.691 Y87.606 E47.71399
G1 X98.625 Y91.540 E48.07244
G1 X99.767 Y91.393 E48.14663
G1 X95.622 Y87.249 E48.52432
G1 X96.630 Y86.968 E48.59170
G1 X101.104 Y91.442 E48.99941
